src/assets/outline/SearchZoomIn1.svg

<svg width="24" height="24" viewBox="0 0 24 24"  xmlns="http://www.w3.org/2000/svg">
<path d="M11 20.75C5.62 20.75 1.25 16.38 1.25 11C1.25 5.62 5.62 1.25 11 1.25C16.38 1.25 20.75 5.62 20.75 11C20.75 16.38 16.38 20.75 11 20.75ZM11 2.75C6.45 2.75 2.75 6.45 2.75 11C2.75 15.55 6.45 19.25 11 19.25C15.55 19.25 19.25 15.55 19.25 11C19.25 6.45 15.55 2.75 11 2.75Z" />
<path d="M13.5 11.75H8.5C8.09 11.75 7.75 11.41 7.75 11C7.75 10.59 8.09 10.25 8.5 10.25H13.5C13.91 10.25 14.25 10.59 14.25 11C14.25 11.41 13.91 11.75 13.5 11.75Z" />
<path d="M11 14.25C10.59 14.25 10.25 13.91 10.25 13.5V8.5C10.25 8.09 10.59 7.75 11 7.75C11.41 7.75 11.75 8.09 11.75 8.5V13.5C11.75 13.91 11.41 14.25 11 14.25Z" />
<path d="M20.1601 22.79C20.0801 22.79 20.0001 22.78 19.9301 22.77C19.4601 22.71 18.6101 22.39 18.1301 20.96C17.8801 20.21 17.9701 19.46 18.3801 18.89C18.7901 18.32 19.4801 18 20.2701 18C21.2901 18 22.0901 18.39 22.4501 19.08C22.8101 19.77 22.7101 20.65 22.1401 21.5C21.4301 22.57 20.6601 22.79 20.1601 22.79ZM19.5601 20.49C19.7301 21.01 19.9701 21.27 20.1301 21.29C20.2901 21.31 20.5901 21.12 20.9001 20.67C21.1901 20.24 21.2101 19.93 21.1401 19.79C21.0701 19.65 20.7901 19.5 20.2701 19.5C19.9601 19.5 19.7301 19.6 19.6001 19.77C19.4801 19.94 19.4601 20.2 19.5601 20.49Z" />
</svg>

<?xml version="1.0" encoding="UTF-8"?>
<svg width="24" height="24" viewBox="0 0 24 24" xmlns="http://www.w3.org/2000/svg">
 <path d="m11 20.75c-5.38 0-9.75-4.37-9.75-9.75s4.37-9.75 9.75-9.75 9.75 4.37 9.75 9.75-4.37 9.75-9.75 9.75zm0-18c-4.55 0-8.25 3.7-8.25 8.25s3.7 8.25 8.25 8.25 8.25-3.7 8.25-8.25-3.7-8.25-8.25-8.25z"/>
 <path d="m13.5 11.75h-5c-0.41 0-0.75-0.34-0.75-0.75s0.34-0.75 0.75-0.75h5c0.41 0 0.75 0.34 0.75 0.75s-0.34 0.75-0.75 0.75z"/>
 <path d="m11 14.25c-0.41 0-0.75-0.34-0.75-0.75v-5c0-0.41 0.34-0.75 0.75-0.75s0.75 0.34 0.75 0.75v5c0 0.41-0.34 0.75-0.75 0.75z"/>
 <path d="m20.16 22.79c-0.08 0-0.16-0.01-0.23-0.02-0.47-0.06-1.32-0.38-1.8-1.81-0.25-0.75-0.16-1.5 0.25-2.07s1.1-0.89 1.89-0.89c1.02 0 1.82 0.39 2.18 1.08s0.26 1.57-0.31 2.42c-0.71 1.07-1.48 1.29-1.98 1.29zm-0.6-2.3c0.17 0.52 0.41 0.78 0.57 0.8s0.46-0.17 0.77-0.62c0.29-0.43 0.31-0.74 0.24-0.88s-0.35-0.29-0.87-0.29c-0.31 0-0.54 0.1-0.67 0.27-0.12 0.17-0.14 0.43-0.04 0.72z"/>
</svg>
